assets/Cyclone/Flat/cyclone_flat.svg

<svg width="32" height="32" viewBox="0 0 32 32" fill="none" xmlns="http://www.w3.org/2000/svg">
<path d="M11.0796 2.73553C11.7779 3.59132 11.6503 4.8512 10.7945 5.54955C7.86908 7.93674 6 11.5672 6 15.64C6 21.1654 10.4746 25.64 16 25.64C21.5254 25.64 26 21.1654 26 15.64C26 11.7746 22.8654 8.64 19 8.64C15.1346 8.64 12 11.7746 12 15.64C12 17.8554 13.7846 19.64 16 19.64C18.2154 19.64 20 17.8554 20 15.64C20 15.0846 19.5554 14.64 19 14.64C18.4446 14.64 18 15.0846 18 15.64C18 16.7446 17.1046 17.64 16 17.64C14.8954 17.64 14 16.7446 14 15.64C14 12.8754 16.2354 10.64 19 10.64C21.7646 10.64 24 12.8754 24 15.64C24 20.0646 20.4246 23.64 16 23.64C11.5754 23.64 8 20.0646 8 15.64C8 9.56543 12.9254 4.64 19 4.64C25.0746 4.64 30 9.56543 30 15.64C30 23.3746 23.7346 29.64 16 29.64C8.26543 29.64 2 23.3746 2 15.64C2 10.3128 4.45092 5.56326 8.26553 2.45045C9.12132 1.7521 10.3812 1.87974 11.0796 2.73553Z" fill="#1345B7"/>
</svg>

<svg xmlns="http://www.w3.org/2000/svg" width="32" height="32" fill="none"><path fill="#1345B7" d="M11.08 2.736a2 2 0 0 1-.286 2.814A12.988 12.988 0 0 0 6 15.64c0 5.525 4.475 10 10 10s10-4.475 10-10a7 7 0 0 0-14 0c0 2.215 1.785 4 4 4s4-1.785 4-4c0-.555-.445-1-1-1-.555 0-1 .445-1 1a2 2 0 1 1-4 0c0-2.765 2.235-5 5-5s5 2.235 5 5c0 4.425-3.575 8-8 8s-8-3.575-8-8c0-6.075 4.925-11 11-11s11 4.925 11 11c0 7.735-6.265 14-14 14s-14-6.265-14-14C2 10.313 4.45 5.563 8.266 2.45a2 2 0 0 1 2.814.286Z"/></svg>
